assets/img/others/css3.svg

<svg xmlns="http://www.w3.org/2000/svg" width="70" height="80" viewBox="85.5 210.3 437.3 491.7">
  <path fill="#1572B6" d="M128.7 652.8l-39.5-442.5h433.6l-39.5 442.5-177.6 49.2"/>
  <path fill="#33A9DC" d="M306 664.4l143.5-39.8 33.7-378h-177.2"/>
  <path fill="#FFF" d="M167.7 293.6l-.3 54.7h223v35.4h-223.4l-.2 54.8h223l-.3 62.4-84 29.6-83.5-29.5v-27h-54.7l-.3 65.6 138.4 49.4 138.8-49.4.5-99v-19.6l.7-127.4h-277.7z"/>
</svg>

<svg xmlns="http://www.w3.org/2000/svg" width="70" height="80" viewBox="85.5 210.3 437.3 491.7">
  <path fill="#1572B6" d="M128.7 652.8L89.2 210.3h433.6l-39.5 442.5L305.7 702"/>
  <path fill="#33A9DC" d="M306 664.4l143.5-39.8 33.7-378H306"/>
  <path fill="#FFF" d="M167.7 293.6l-.3 54.7h223v35.4H167l-.2 54.8h223l-.3 62.4-84 29.6L222 501v-27h-54.7l-.3 65.6L305.4 589l138.8-49.4.5-99V421l.7-127.4H167.7z"/>
</svg>
